devices/scalable-dark/network-vpn.svg

<svg viewBox="0 0 16 16" xmlns="http://www.w3.org/2000/svg"><path d="m8.0000814.00000125c-.102732 0-.205745.032113-.292986.095709-.8332703.6066077-3.3659681 2.26457735-6.4691268 2.55483595-.37342254.0342603-.66148494.3437386-.66800764.7187919-.0375053 2.4476305.3563045 10.7570109 7.24260944 12.6062029.1223.03261.250769.03261.373069 0 6.8863046-1.847545 7.2804366-10.1585887 7.2445626-12.6062029-.004894-.3750533-.294602-.6845316-.668008-.7187919-3.103159-.2902586-5.6361946-1.94822825-6.4710796-2.55483625-.087241-.063596-.188301-.0957087-.291033-.0957087zm0 5.50032035c.841165 0 1.523527.682424 1.523527 1.5235266 0 .433748-.181656.824093-.472685 1.101626l.408227 2.1622348c.02214.118019-.05832.212904-.177744.212904h-2.5333511c-.1194269 0-.1998941-.0959-.1777448-.212904l.4043205-2.1387948c-.3054159-.278551-.4980759-.679262-.4980759-1.125066 0-.8411026.6823603-1.5235266 1.5235263-1.5235266z" fill="#f2f2f2"/></svg>

<?xml version="1.0" encoding="UTF-8" standalone="no"?>
<svg
   xmlns:dc="http://purl.org/dc/elements/1.1/"
   xmlns:cc="http://creativecommons.org/ns#"
   xmlns:rdf="http://www.w3.org/1999/02/22-rdf-syntax-ns#"
   xmlns:svg="http://www.w3.org/2000/svg"
   xmlns="http://www.w3.org/2000/svg"
   xmlns:sodipodi="http://sodipodi.sourceforge.net/DTD/sodipodi-0.dtd"
   xmlns:inkscape="http://www.inkscape.org/namespaces/inkscape"
   viewBox="0 0 16 16"
   id="svg3197"
   version="1.1"
   inkscape:version="0.91 r13725"
   sodipodi:docname="network-vpn.svg">
  <metadata
     id="metadata3205">
    <rdf:RDF>
      <cc:Work
         rdf:about="">
        <dc:format>image/svg+xml</dc:format>
        <dc:type
           rdf:resource="http://purl.org/dc/dcmitype/StillImage" />
      </cc:Work>
    </rdf:RDF>
  </metadata>
  <sodipodi:namedview
     pagecolor="#ffffff"
     bordercolor="#666666"
     borderopacity="1"
     objecttolerance="10"
     gridtolerance="10"
     guidetolerance="10"
     inkscape:pageopacity="0"
     inkscape:pageshadow="2"
     inkscape:window-width="640"
     inkscape:window-height="480"
     id="namedview3203"
     showgrid="false"
     inkscape:zoom="41.1875"
     inkscape:cx="3.6783005"
     inkscape:cy="8"
     inkscape:current-layer="svg3197" />
  <defs
     id="defs3051">
    <style
       type="text/css"
       id="current-color-scheme">
      .ColorScheme-Text {
        color:#4d4d4d;
      }
      </style>
  </defs>
  <path
     style="fill:#f2f2f2;fill-opacity:1;stroke:none"
     class="ColorScheme-Text"
     d="m 8.0000814,1.25e-6 c -0.102732,0 -0.205745,0.032113 -0.292986,0.095709 C 6.8738251,0.70231795 4.3411273,2.3602876 1.2379686,2.6505462 0.86454606,2.6848065 0.57648366,2.9942848 0.56996096,3.3693381 0.53245566,5.8169686 0.92626546,14.126349 7.8125704,15.975541 c 0.1223,0.03261 0.250769,0.03261 0.373069,0 C 15.071944,14.127996 15.466076,5.8169523 15.430202,3.3693381 15.425308,2.9942848 15.1356,2.6848065 14.762194,2.6505462 11.659035,2.3602876 9.1259994,0.70231795 8.2911144,0.09570995 8.2038734,0.03211395 8.1028134,1.25e-6 8.0000814,1.25e-6 Z m 0,5.50032035 c 0.841165,0 1.523527,0.682424 1.523527,1.5235266 0,0.433748 -0.181656,0.824093 -0.472685,1.101626 l 0.408227,2.1622348 c 0.02214,0.118019 -0.05832,0.212904 -0.177744,0.212904 l -2.5333511,0 c -0.1194269,0 -0.1998941,-0.0959 -0.1777448,-0.212904 L 6.974631,8.1489142 C 6.6692151,7.8703632 6.4765551,7.4696522 6.4765551,7.0238482 c 0,-0.8411026 0.6823603,-1.5235266 1.5235263,-1.5235266 z"
     id="path3201" />
</svg>
